X: 1
T: Gasp\'e
M: C|
L: 1/8
R: reel
K: D
z2 |\
"D"[fA] z2 ((3f/g/f/ e2)d2 | zAFA "D#dim"B2A2 |\
"Em"[g2B2]zgf2e(A | "A"B)ABc ((3BdB)A2 |\
"D"f2((3fgf) e2d2 | AAFA "D#dim"((3BdB)A2 |
"Em"g2fa ((3faf) e(A | "A"B2)c2 "D"d2 :: "D#dim"((3faf) |\
"Em"e2f2 "A/C#"gf (e2 | "D"f2) g2 "Bm"a3(f |\
"Em"e2)ff "A/C#" gf eA | "F#m"BABc "B7" ((3BdB)A2 |
"Em"e2f2 "A/C#"gf (e2 | "D"f2) g2 "Bm"a3 |\
[1 (f | "Em"e2)ff gf e(A | "A"B2)c2 "D"d2 :|\
[2  a | "Em"b2 ((3aba) gfe(A | "A"B2)c2 "D"d2 |]
% text The bowings are suggestions only, to give it a Qu\'ebec touch.


